X: 59
T: Al Sazını Sen Sevdiceğim
C: Bîmen Şen
O: Turkey
F: http://compmusic.upf.edu/node/140
N: sultaniyegah--sarki--senginsemai--al_sazini--bimen_sen
N: makam= sultaniyegah
N: form= sarki
N: usul= senginsemai = 6/4
M: 6/4
L: 1/16
K: C _B ^c  
Q: 1/4=72
%%MIDI tuningsystem comma53
(3A2c2e2 a4 g3f efge f8  | (3e2f2g2 a2gf f3e d2cd e8  | 
w:  ARANAĞME  |   | 
A3B c2A2 B2c2 d2f2 (3e2d2=c2 B2A2  | \
w:   | 
(3G2F2E2 A4 F2ED C2E2 D8  | 
w:   | 
(3A2c2e2 a4 g3f efge f8  | (3e2f2g2 a2gf f3e d2cd e8  | 
w:  ARANAĞME  |   | 
A3B c2A2 B2c2 d2f2 (3e2d2=c2 B2A2  | \
w:   | 
(3G2F2E2 A4 F2ED C2E2 D8  | 
w:   | 
A4 d4 c2d2 e2ed d8  | d3f e2d2 c3B cBBA A8  | \
w:  Al sa zı *  nı *  *  sen  |  sev *  *  *  di *  ce *  *  *  ğim  | 
a3g f2a2 g3f e2g2 f3e eddc  | 
w:  şen *  *  *  he *  ve *  sin  | 
d8 A4 BABc d3e cBA2  | A4 d4 c2d2 e2ed d8  | \
w:  le SAZ  |  Al sa zı *  nı *  *  sen  | 
d3f e2d2 c3B cBBA A8  | 
w:  sev *  *  *  di *  ce *  *  *  ğim  | 
a3g f2a2 g3f e2g2 f3e eddc  | d8 A4 BABc d3e dcd2  | 
w:  şen *  *  *  he *  ve *  sin  |  le SAZ  | 
d3e f3e e3d d2=c2 dcBc B2A2  | A4 d3=c B3A G4 G2AG FEF2  | 
w:  Çal *  söy *  le *  be *  nim  |  şar *  *  kı *  mı  sev  | 
E2F2 E2F2 E2FG FED2 FEDE D2C2  | D8 A4 BABc d3e dcd2  | 
w:  da *  *  *  lı  *  *  se *  *  sin  |  le   SAZ  | 
d3e f3e e3d d2=c2 dcBc B2A2  | A4 d3=c B3A G4 G2AG FEF2  | 
w:  Çal *  söy *  le *  be *  nim  |  şar *  *  kı *  mı  sev  | 
E2F2 E2F2 E2FG FED2 FEDE D2C2  | D8 a3g agfg a3b aga2  | 
w:  da *  *  *  lı  *  *  se *  *  sin  |  le   SAZ  | 
g3a a4 a3g gffg a8  | =c'2b2 a2g2 f3e eddc d8  | 
w:  Ben  *  din le  *  ye *  *  *  yim   |  ağ *  *  *  la *  *  *  *  *  yım   | 
b3a g4 a3g f4 g2a2 b2{=c'}ba  | a8 f3_7/8g f_1/4ede f3g fef2  | 
w:  giz *  *  li *  ce  böy  |  le   SAZ  | 
f4 _7/8g3f {g}f2fg f_1/4ede f8  | \
w:  Ben  din *  le *  ye *  *  *  *  *  yim   | 
e2f2 e2f2 e2f2 edcd e8  | 
w:  ağ *  *  *  la *  ya *  *  *  yım   | 
a3g f2a2 g3f e2g2 f3e eddc  | d8 A4 BABc d3e dcd2  | 
w:  giz *  *  *  li *  ce  *  böy  |  le   SAZ  | 
d3e f3e e3d d2=c2 dcBc B2A2  | A4 d3=c B3A G4 G2AG FEF2  | 
w:  Çal *  söy *  le *  be *  nim  |  şar *  *  kı *  mı  sev  | 
E2F2 E2F2 E2FG FED2 FEDE D2C2  | D8 A4 BABc d3e dcd2  | 
w:  da *  *  *  lı  *  *  se *  *  sin  |  le   SAZ  | 
d3e f3e e3d d2=c2 dcBc B2A2  | A4 d3=c B3A G4 G2AG FEF2  | 
w:  Çal *  söy *  le *  be *  nim  |  şar *  *  kı *  mı  sev  | 
E2F2 E2F2 E2FG FED2 FEDE D2C2  | D3d =cBAG F3E EDDC D8  | 
w:  da *  *  *  lı  *  *  se *  *  sin  |  le   KARAR SAZ  | 
|


